X:51
T: Der himmlische Ackersmann (Band 1), S. 155
N: P0826
O: Lothringen
S: PINCK, Louis: Verklingende Weisen, Bd 1, Metz 1928]
R: geistliches, religiöses Lied]
M: 3/4
L: 1/16
K: E
=G2E2 | E4E4E4 | B4B4A4 | B8A2B2 | =G8
A4 | A8B4 | =c4B4A4 | =G4E4F4 | E8z4
A8-A3B | =G4F4E3=D | =D8
D4 | =G4G4A4 | B4B4A4 | =G4E4F4 | E8

